X:1
T:[ID 2-131]
T:[ID 2-131]
T:Bezeichnung standardisiert: Polonaise Polonoise
T:Urheber unbekannt Datum in der hier transkribierten schriftlichen Quelle: 1767
C:Urheber unbekannt
C:Datum in der hier transkribierten schriftlichen Quelle: 1767
L:1/8
M:3/4
K:D
V:1 treble 
V:1
 DE/F/ GABc | da (g/b/)(e/g/){g} f2 | (e/f/)(g/f/) edcd | e/d/c/B/ A2 A,2 | (df)(fa)(ad') | %5
 a>f{a} (ge)(fd) | (DF)(FA)(Ad) | AA/F/ (GE)(FD) | b>a (g/f/)(e/d/) (c/B/)(A/G/) | %9
 F/d/E/c/ d2 D2 :: A,B,/C/ DEF^G | Ac e/c/B/d/ c2 | B/A/B/c/ d/c/d/e/ fd | c/B/A/^G/ A2 A,2 | %14
 (Ad)(df)(fa) | (a/g/)(f/a/) (g/f/)(e/g/){g} f2 | (A,D)(DF)(FA) | %17
 (A/G/)(F/"^sic"G/) (G/F/)(E/G/) F2 | (A/B/)(c/d/) (e/f/)(g/a/) (b/g/)(e/g/) | f/d/c/e/ d2 D2 :| %20

